symbols/web/speaker_group/materialsymbolsoutlined/speaker_group_wght500fill1_24px.svg

<svg xmlns="http://www.w3.org/2000/svg" height="24" width="24"><path d="M10.075 19q-.95 0-1.612-.663-.663-.662-.663-1.612V3.1q0-.95.663-1.613.662-.662 1.612-.662h8.85q.95 0 1.613.662.662.663.662 1.613v13.625q0 .95-.662 1.612-.663.663-1.613.663ZM14.5 7.475q.625 0 1.062-.438Q16 6.6 16 5.975t-.438-1.063q-.437-.437-1.062-.437t-1.062.437Q13 5.35 13 5.975t.438 1.062q.437.438 1.062.438Zm0 8.275q1.425 0 2.438-1.012 1.012-1.013 1.012-2.438 0-1.425-1.012-2.437Q15.925 8.85 14.5 8.85q-1.425 0-2.438 1.013-1.012 1.012-1.012 2.437 0 1.425 1.012 2.438 1.013 1.012 2.438 1.012Zm0-2q-.6 0-1.025-.425-.425-.425-.425-1.025 0-.6.425-1.025.425-.425 1.025-.425.6 0 1.025.425.425.425.425 1.025 0 .6-.425 1.025-.425.425-1.025.425Zm1.575 9.425H5.9q-.95 0-1.613-.662-.662-.663-.662-1.613V4.825H5.9V20.9h10.175Z"/></svg>

<svg xmlns="http://www.w3.org/2000/svg" height="24" width="24"><path d="M10.075 19Q9.125 19 8.463 18.337Q7.8 17.675 7.8 16.725V3.1Q7.8 2.15 8.463 1.487Q9.125 0.825 10.075 0.825H18.925Q19.875 0.825 20.538 1.487Q21.2 2.15 21.2 3.1V16.725Q21.2 17.675 20.538 18.337Q19.875 19 18.925 19ZM14.5 7.475Q15.125 7.475 15.562 7.037Q16 6.6 16 5.975Q16 5.35 15.562 4.912Q15.125 4.475 14.5 4.475Q13.875 4.475 13.438 4.912Q13 5.35 13 5.975Q13 6.6 13.438 7.037Q13.875 7.475 14.5 7.475ZM14.5 15.75Q15.925 15.75 16.938 14.738Q17.95 13.725 17.95 12.3Q17.95 10.875 16.938 9.863Q15.925 8.85 14.5 8.85Q13.075 8.85 12.062 9.863Q11.05 10.875 11.05 12.3Q11.05 13.725 12.062 14.738Q13.075 15.75 14.5 15.75ZM14.5 13.75Q13.9 13.75 13.475 13.325Q13.05 12.9 13.05 12.3Q13.05 11.7 13.475 11.275Q13.9 10.85 14.5 10.85Q15.1 10.85 15.525 11.275Q15.95 11.7 15.95 12.3Q15.95 12.9 15.525 13.325Q15.1 13.75 14.5 13.75ZM16.075 23.175H5.9Q4.95 23.175 4.287 22.513Q3.625 21.85 3.625 20.9V4.825H5.9V20.9Q5.9 20.9 5.9 20.9Q5.9 20.9 5.9 20.9H16.075Z"/></svg>
